src/img/wind-speed.svg

<svg width="19" height="13" viewBox="0 0 19 13" fill="none" xmlns="http://www.w3.org/2000/svg">
<g clip-path="url(#clip0_38_135)">
<path d="M16.7012 3.25C15.5553 3.25 14.6255 4.17383 14.6255 5.3125C14.6255 5.5551 14.676 5.78335 14.7526 6H1.47984C1.09788 6 0.787964 6.30796 0.787964 6.6875C0.787964 7.06704 1.09788 7.375 1.47984 7.375H16.7012C17.8471 7.375 18.7768 6.45117 18.7768 5.3125C18.7768 4.17383 17.8471 3.25 16.7012 3.25ZM1.47984 4.625H9.78239C10.9283 4.625 11.858 3.70117 11.858 2.5625C11.858 1.42383 10.9283 0.5 9.78239 0.5C8.63647 0.5 7.70675 1.42383 7.70675 2.5625C7.70675 2.8051 7.75722 3.03335 7.8338 3.25H1.47984C1.09788 3.25 0.787964 3.55796 0.787964 3.9375C0.787964 4.31704 1.09788 4.625 1.47984 4.625ZM12.5499 8.75C12.5093 8.75 12.4706 8.75894 12.4292 8.7625C12.4022 8.76074 12.3797 8.75 12.3526 8.75H1.67807C1.18618 8.75 0.787964 9.05796 0.787964 9.4375C0.787964 9.81704 1.18618 10.125 1.67807 10.125H10.6013C10.5247 10.3416 10.4743 10.5708 10.4743 10.8125C10.4743 11.9512 11.404 12.875 12.5499 12.875C13.6958 12.875 14.6255 11.9512 14.6255 10.8125C14.6255 9.67383 13.6958 8.75 12.5499 8.75Z" fill="white"/>
</g>
<defs>
<clipPath id="clip0_38_135">
<rect width="19" height="13" fill="white"/>
</clipPath>
</defs>
</svg>

<svg xmlns="http://www.w3.org/2000/svg" width="19" height="13" fill="none"><g clip-path="url(#a)"><path fill="#fff" d="M16.701 3.25a2.07 2.07 0 0 0-2.075 2.063c0 .242.05.47.127.687H1.48a.69.69 0 0 0-.692.688c0 .379.31.687.692.687H16.7a2.07 2.07 0 0 0 2.076-2.062A2.07 2.07 0 0 0 16.7 3.25M1.48 4.625h8.302a2.07 2.07 0 0 0 2.076-2.062A2.07 2.07 0 0 0 9.782.5a2.07 2.07 0 0 0-2.075 2.063c0 .242.05.47.127.687H1.48a.69.69 0 0 0-.692.688c0 .379.31.687.692.687M12.55 8.75c-.04 0-.08.009-.12.012-.028-.001-.05-.012-.077-.012H1.678c-.492 0-.89.308-.89.688s.398.687.89.687h8.923a2 2 0 0 0-.127.688 2.07 2.07 0 0 0 2.076 2.062 2.07 2.07 0 0 0 2.076-2.062A2.07 2.07 0 0 0 12.55 8.75"/></g><defs><clipPath id="a"><path fill="#fff" d="M0 0h19v13H0z"/></clipPath></defs></svg>
